raw-svg/building.svg

<svg viewBox="0 0 24 24" xmlns="http://www.w3.org/2000/svg"><rect height="2" rx=".5" width="2" x="9" y="6"/><rect height="2" rx=".5" width="2" x="13" y="6"/><rect height="2" rx=".5" width="2" x="9" y="9.5"/><rect height="2" rx=".5" width="2" x="13" y="9.5"/><rect height="2" rx=".5" width="2" x="9" y="13"/><rect height="2" rx=".5" width="2" x="13" y="13"/><path d="m18.25 19.25h-.5v-15.25a.76.76 0 0 0 -.75-.75h-10a.76.76 0 0 0 -.75.75v15.25h-.5a.75.75 0 0 0 0 1.5h12.5a.75.75 0 0 0 0-1.5zm-2 0h-5.25v-2.25a.5.5 0 0 0 -.5-.5h-1a.5.5 0 0 0 -.5.5v2.25h-1.25v-14.5h8.5z"/></svg>

<svg xmlns="http://www.w3.org/2000/svg" viewBox="0 0 24 24"><g id="building"><rect x="9" y="6" width="2" height="2" rx="0.5"/><rect x="13" y="6" width="2" height="2" rx="0.5"/><rect x="9" y="9.5" width="2" height="2" rx="0.5"/><rect x="13" y="9.5" width="2" height="2" rx="0.5"/><rect x="9" y="13" width="2" height="2" rx="0.5"/><rect x="13" y="13" width="2" height="2" rx="0.5"/><path d="M18.25,19.25h-.5V4A.76.76,0,0,0,17,3.25H7A.76.76,0,0,0,6.25,4V19.25h-.5a.75.75,0,0,0,0,1.5h12.5a.75.75,0,0,0,0-1.5Zm-2,0H11V17a.5.5,0,0,0-.5-.5h-1A.5.5,0,0,0,9,17v2.25H7.75V4.75h8.5Z"/></g></svg>
